build/img/sprite/arrow.svg

<svg width="28" height="28" viewBox="0 0 28 28" fill="none" xmlns="http://www.w3.org/2000/svg">
<circle cx="14" cy="14" r="13.25" stroke="#BDD0E7" stroke-width="1.5"/>
<path d="M9.28033 11.2278C8.98744 10.9241 8.51256 10.9241 8.21967 11.2278C7.92678 11.5315 7.92678 12.024 8.21967 12.3278L13.4697 17.7722C13.7626 18.0759 14.2374 18.0759 14.5303 17.7722L19.7803 12.3277C20.0732 12.024 20.0732 11.5315 19.7803 11.2278C19.4874 10.9241 19.0126 10.9241 18.7197 11.2278L14 16.1223L9.28033 11.2278Z" fill="#BDD0E7"/>
</svg>

<svg width="28" height="28" fill="none" xmlns="http://www.w3.org/2000/svg"><circle cx="14" cy="14" r="13.25" stroke="#BDD0E7" stroke-width="1.5"/><path d="M9.28 11.228a.731.731 0 00-1.06 0 .798.798 0 000 1.1l5.25 5.444a.731.731 0 001.06 0l5.25-5.444a.798.798 0 000-1.1.731.731 0 00-1.06 0L14 16.122l-4.72-4.894z" fill="#BDD0E7"/></svg>
